X: 1
T: Michael Russell's
M: 12/8
L: 1/8
R: slide
K: Dmaj
|: dcB |\
A3 A2 F ABA F2 E | DFA B2 A B2 A F3 |
dcd a2 g f2 d B2 A | BcA BAB d2 d :| 
|: d3 |\
dcd a2 g f2 d B2 A | BcA BcA B2 A F3 |
dcd a2 g f2 d B2 A | BcA BAB d3 :|
